lib/preview/nrk-logo-preview-nrk-jazz.svg

<svg width="72" height="14" viewBox="0 0 72 14" fill="none" xmlns="http://www.w3.org/2000/svg">
<path d="M6.10352e-05 13.0017V1.0028H3.93725V13.0017H6.10352e-05ZM9.29387 2.91249L11.5581 13.0017H7.24923L4.54555 1.0028H6.96224C7.51641 0.995607 8.05412 1.19096 8.47456 1.5521C8.89568 1.89809 9.18501 2.37841 9.29387 2.91249ZM12.1496 13.0017V1.0028H16.0868V13.0017H12.1496ZM19.0605 5.56581C18.6363 5.56995 18.2188 5.45894 17.8526 5.24467C17.4913 5.03583 17.1912 4.73567 16.9823 4.37431C16.7678 4.00804 16.6568 3.59047 16.661 3.16603C16.6562 2.74417 16.7673 2.32909 16.9823 1.96614C17.1934 1.6087 17.4932 1.3118 17.8526 1.10423C18.2189 0.890211 18.6363 0.779224 19.0605 0.783093C19.4823 0.778551 19.8972 0.889638 20.2603 1.10423C20.6161 1.31362 20.9127 1.61027 21.1221 1.96614C21.3369 2.32919 21.448 2.7442 21.4434 3.16603C21.4473 3.59044 21.3363 4.00794 21.1221 4.37431C20.9149 4.73408 20.618 5.03399 20.2603 5.24467C19.8972 5.45969 19.4819 5.5708 19.06 5.56581H19.0605ZM22.0517 13.0017V1.0028H25.9892V13.0017H22.0517ZM30.9738 7.55994C30.9849 7.57158 31.0693 7.70959 31.2272 7.97398C31.3851 8.23837 31.5907 8.57639 31.844 8.988C32.0975 9.39942 32.3649 9.83597 32.6464 10.2977C32.9278 10.7594 33.1927 11.1961 33.4409 11.6075C33.6882 12.0189 33.9698 12.4836 34.2858 13.0017H29.9599C29.6893 12.5623 29.4442 12.1652 29.2245 11.8103C29.0049 11.4554 28.7714 11.0723 28.5239 10.6611C28.2759 10.2502 28.0307 9.85025 27.7883 9.46117C27.5459 9.0721 27.3376 8.73132 27.1633 8.43877C26.9883 8.14602 26.8671 7.94883 26.7997 7.84725C26.6326 7.59515 26.5337 7.304 26.5127 7.00225C26.5295 6.71264 26.6227 6.43269 26.7828 6.19082C26.8504 6.07815 26.9743 5.87814 27.1546 5.59084C27.3348 5.30354 27.5461 4.96276 27.7883 4.56843C28.0305 4.1741 28.2757 3.77131 28.5239 3.36008C28.7721 2.94885 29.0056 2.56294 29.2245 2.20241C29.4446 1.84226 29.6897 1.4423 29.9599 1.00252H34.2858L30.9397 6.46121C30.8361 6.62327 30.7778 6.81005 30.7707 7.00225C30.7818 7.20403 30.8523 7.39803 30.9732 7.55994H30.9738Z" fill="white"/>
<path d="M42.1209 10.2704C42.1241 10.4665 42.0898 10.6613 42.02 10.8444C41.9568 11.007 41.8592 11.1538 41.734 11.2749C41.604 11.397 41.4489 11.4892 41.2798 11.5451C41.0844 11.6095 40.8798 11.6408 40.6741 11.6379C40.5396 11.6379 40.4134 11.6323 40.2956 11.621C40.1778 11.6097 40.0601 11.5957 39.9423 11.5788C39.8245 11.5619 39.7068 11.5421 39.5891 11.5194C39.4713 11.4967 39.3507 11.4715 39.2274 11.4438C39.104 11.4156 38.9806 11.3847 38.8572 11.3509L38.9918 12.8703C39.1488 12.9153 39.3003 12.9574 39.4461 12.9966C39.5919 13.0363 39.7376 13.0698 39.8834 13.0982C40.0336 13.1267 40.1853 13.1464 40.3377 13.157C40.4947 13.1683 40.6685 13.174 40.8592 13.1742C41.2481 13.1803 41.636 13.1319 42.0116 13.0304C42.318 12.9469 42.6061 12.8067 42.8612 12.6171C43.0912 12.443 43.2879 12.2285 43.4416 11.984C43.5944 11.7387 43.708 11.4709 43.7781 11.1902C43.852 10.895 43.8887 10.5915 43.8874 10.287V1.00171H42.1209V10.2704Z" fill="white"/>
<path d="M53.8468 11.9249C53.7239 11.9362 53.6 11.9175 53.4858 11.8705C53.3716 11.8235 53.2703 11.7495 53.1907 11.6548C53.0347 11.3843 52.9699 11.0705 53.0057 10.76L53.0393 7.28226C53.043 6.91767 52.9978 6.55425 52.9048 6.2018C52.823 5.89263 52.6862 5.60083 52.5009 5.34051C52.3137 5.08614 52.076 4.87346 51.8028 4.71587C51.4852 4.53511 51.142 4.40424 50.785 4.32784C50.3484 4.2332 49.9026 4.18791 49.4559 4.19279C49.1016 4.19252 48.7476 4.21499 48.3961 4.26004C48.064 4.30218 47.7351 4.36712 47.4119 4.45445C47.1121 4.53592 46.8172 4.63458 46.5287 4.7499L46.3267 6.1849C46.6071 6.08379 46.8735 5.99937 47.1259 5.93166C47.3782 5.86394 47.6222 5.80767 47.8577 5.76284C48.0885 5.71866 48.3216 5.68776 48.5559 5.67027C48.7854 5.65339 49.0125 5.64484 49.2372 5.64465C49.5803 5.63739 49.9227 5.67717 50.255 5.76284C50.4975 5.82374 50.7205 5.94588 50.9027 6.11765C51.0651 6.28455 51.181 6.49116 51.2392 6.71697C51.311 6.9953 51.3449 7.28209 51.3402 7.56954L51.3382 7.99301L49.3718 8.12665C48.6992 8.14554 48.0366 8.29447 47.4203 8.5653C46.9592 8.76796 46.5611 9.09167 46.2679 9.5023C46.0191 9.86778 45.8872 10.3005 45.8894 10.7431C45.8863 11.1585 45.9875 11.5679 46.1837 11.9336C46.3896 12.3091 46.6993 12.6167 47.0754 12.8197C47.5344 13.0593 48.0472 13.1756 48.5643 13.1573C49.0486 13.1685 49.5309 13.0884 49.9859 12.9213C50.3792 12.7668 50.7391 12.5375 51.0457 12.246C51.1622 12.134 51.2726 12.016 51.3766 11.8923C51.4092 12.0672 51.4709 12.2353 51.5589 12.3897C51.7089 12.6481 51.9394 12.8498 52.2149 12.9637C52.5196 13.0866 52.8457 13.1469 53.1739 13.141C53.2749 13.141 53.373 13.1379 53.4683 13.1326C53.562 13.1269 53.6549 13.1127 53.7459 13.0901C53.8356 13.0676 53.9166 13.0482 53.9898 13.031C54.0557 13.0164 54.1204 12.9966 54.1833 12.9719L54.3684 11.8411C54.2755 11.873 54.1797 11.8956 54.0824 11.9086C54.0043 11.9189 53.9256 11.9243 53.8468 11.9249ZM51.0457 11.1652C50.8633 11.3099 50.6659 11.4346 50.4569 11.5369C50.2486 11.6384 50.0281 11.7122 49.8008 11.7564C49.5652 11.8018 49.3257 11.8243 49.0858 11.8236C48.8116 11.8316 48.5389 11.7798 48.2867 11.6717C48.0814 11.5824 47.9083 11.4323 47.7904 11.2414C47.6739 11.0391 47.6156 10.8082 47.6222 10.5746C47.6059 10.293 47.6828 10.014 47.8409 9.78085C48.0241 9.56643 48.2723 9.41818 48.5475 9.3588C48.9773 9.25738 49.4183 9.21207 49.8597 9.22402H51.3328L51.3253 10.8996C51.2398 10.9959 51.1463 11.0849 51.0457 11.1652Z" fill="white"/>
<path d="M62.3255 5.57709L62.1237 4.37816H55.6299L55.4279 5.72877H60.3135L55.2768 11.8402L55.4787 12.9882H62.3427L62.5277 11.6207H57.3857L62.3255 5.57709Z" fill="white"/>
<path d="M65.8644 11.621L70.8048 5.57743L70.6027 4.37847H64.1089L63.9069 5.72907H68.7922L63.7556 11.8405L63.9574 12.9885H70.8214L71.0064 11.621H65.8644Z" fill="white"/>
</svg>

<svg xmlns="http://www.w3.org/2000/svg" viewBox="0 0 72 14"><path fill="#fff" d="M0 13.002v-12h3.937v12H0Zm9.294-10.09 2.264 10.09H7.25l-2.703-12h2.416a2.276 2.276 0 0 1 1.513.55c.42.346.71.826.819 1.36Zm2.856 10.09v-12h3.937v12H12.15Zm6.91-7.436a2.383 2.383 0 0 1-2.4-2.4 2.303 2.303 0 0 1 .322-1.2 2.411 2.411 0 0 1 3.278-.862c.356.21.653.506.862.862.215.363.326.778.321 1.2a2.4 2.4 0 0 1-1.183 2.079 2.302 2.302 0 0 1-1.2.32Zm2.992 7.436v-12h3.937v12h-3.937Zm8.922-5.442c.01.012.095.15.253.414s.364.602.617 1.014a326.442 326.442 0 0 1 1.597 2.62c.247.41.529.876.845 1.394H29.96c-.27-.44-.516-.837-.736-1.192-.22-.355-.453-.738-.7-1.149-.248-.41-.493-.81-.736-1.2-.242-.389-.45-.73-.625-1.022a17.97 17.97 0 0 0-.363-.592 1.75 1.75 0 0 1-.287-.845c.016-.29.11-.57.27-.811.067-.113.191-.313.372-.6a182.106 182.106 0 0 0 1.37-2.23c.247-.412.48-.798.7-1.159l.735-1.2h4.326l-3.346 5.46a1.078 1.078 0 0 0-.17.54c.012.202.082.396.203.558ZM42.12 10.27a1.54 1.54 0 0 1-.1.574c-.063.163-.16.31-.286.43-.13.123-.285.215-.454.271-.196.065-.4.096-.606.093-.134 0-.26-.006-.378-.017a7.59 7.59 0 0 1-.707-.102 8.941 8.941 0 0 1-.732-.168l.135 1.52.454.126c.146.04.292.073.437.101.15.029.302.048.455.059.157.011.33.017.521.017.39.006.777-.042 1.153-.144.306-.083.594-.223.85-.413.23-.174.426-.389.58-.633.152-.245.266-.513.336-.794.074-.295.11-.598.11-.903V1.002H42.12v9.268ZM53.847 11.925a.765.765 0 0 1-.656-.27 1.457 1.457 0 0 1-.185-.895l.033-3.478a4.073 4.073 0 0 0-.134-1.08 2.657 2.657 0 0 0-.404-.861 2.284 2.284 0 0 0-.698-.625 3.566 3.566 0 0 0-1.018-.388 5.966 5.966 0 0 0-1.33-.135c-.353 0-.707.022-1.059.067a7.293 7.293 0 0 0-.984.194c-.3.082-.595.18-.883.296l-.202 1.435a10.013 10.013 0 0 1 1.53-.422c.232-.044.465-.075.699-.093.23-.017.457-.025.681-.025.343-.008.686.032 1.018.118.242.06.465.183.648.355.162.167.278.373.336.599.072.278.106.565.101.853l-.002.423-1.966.134a5.214 5.214 0 0 0-1.952.438c-.46.203-.859.527-1.152.937-.249.366-.38.798-.379 1.241a2.48 2.48 0 0 0 .295 1.19c.206.376.515.684.891.887.46.24.972.356 1.49.337.484.011.966-.069 1.42-.236a3.277 3.277 0 0 0 1.06-.675 4.57 4.57 0 0 0 .332-.354c.032.175.094.343.182.498.15.258.38.46.656.574.305.123.63.183.959.177.1 0 .199-.003.294-.008a1.54 1.54 0 0 0 .278-.043l.244-.059c.066-.015.13-.034.193-.06l.185-1.13a1.487 1.487 0 0 1-.286.068c-.078.01-.156.015-.235.016Zm-2.801-.76c-.183.145-.38.27-.59.372a2.654 2.654 0 0 1-.655.22 3.722 3.722 0 0 1-.715.067 1.889 1.889 0 0 1-.8-.152 1.098 1.098 0 0 1-.496-.43 1.265 1.265 0 0 1-.168-.667c-.016-.282.06-.561.219-.794.183-.215.431-.363.706-.422a5.11 5.11 0 0 1 1.313-.135h1.473l-.008 1.676a2.257 2.257 0 0 1-.28.265ZM62.325 5.577l-.201-1.199H55.63l-.202 1.35h4.886l-5.037 6.112.202 1.148h6.864l.185-1.367h-5.142l4.94-6.044ZM65.864 11.621l4.94-6.044-.201-1.199h-6.494l-.202 1.351h4.885l-5.036 6.112.201 1.148h6.864l.185-1.368h-5.142Z"/></svg>
